svg/set/ARB/C.svg

<?xml version="1.0" encoding="UTF-8" standalone="no"?>
<svg xmlns="http://www.w3.org/2000/svg" version="1.1" width="600" height="684.18951">
  <path d="M 300,684.18952 76.492388,583.63076 98.814071,517.16175 0,586.91488 0,97.22333 98.814071,167.04487 76.492388,100.55875 300,0 523.42209,100.55875 501.1004,167.04487 600,97.22333 600,586.91488 501.1004,517.16175 523.42209,583.63076 300,684.18952 z" style="fill:#ffffff"/>
  <path d="m 570.59696,342.09476 0,188.01528 -46.02885,-32.46479 -48.7143,-124.47118 -54.11939,0 65.27168,194.56639 -69.34261,31.19905 -45.97753,-225.76544 -43.29209,0 35.33838,250.01995 L 300,651.91288 l -63.81778,-28.71886 35.40681,-250.01995 -43.36051,0 -45.89201,225.76544 -69.42813,-31.19905 65.28878,-194.56639 -54.1365,0 -48.628765,124.47118 -46.045955,32.46479 0,-188.01528 0,-188.0837 46.045955,32.4819 48.628765,124.47118 54.1365,0 -65.28878,-194.49798 69.42813,-31.26746 45.89201,225.76544 43.36051,0 L 236.18222,60.94418 300,32.27664 l 63.73225,28.66754 -35.33838,250.01996 43.29209,0 45.97753,-225.76544 69.34261,31.26746 -65.27168,194.49798 54.11939,0 48.7143,-124.47118 46.02885,-32.4819 0,188.0837 z"/>
</svg>

<?xml version="1.0" encoding="UTF-8" standalone="no"?>
<svg
   version="1.1"
   width="600"
   height="684.18951"
   id="svg2"
   xmlns="http://www.w3.org/2000/svg"
   xmlns:svg="http://www.w3.org/2000/svg">
  <defs
     id="defs2" />
  <path
     d="M 300,684.18952 76.492388,583.63076 98.814071,517.16175 0,586.91488 V 97.22333 L 98.814071,167.04487 76.492388,100.55875 300,0 523.42209,100.55875 501.1004,167.04487 600,97.22333 v 489.69155 l -98.8996,-69.75313 22.32169,66.46901 z"
     style="fill:#ffffff"
     id="path1" />
  <path
     d="M 570.59696,342.09476 V 530.11004 L 524.56811,497.64525 475.85381,373.17407 H 421.73442 L 487.0061,567.74046 417.66349,598.93951 371.68596,373.17407 H 328.39387 L 363.73225,623.19402 300,651.91288 236.18222,623.19402 271.58903,373.17407 h -43.36051 l -45.89201,225.76544 -69.42813,-31.19905 65.28878,-194.56639 h -54.1365 L 75.431895,497.64525 29.38594,530.11004 V 342.09476 154.01106 l 46.045955,32.4819 48.628765,124.47118 h 54.1365 L 112.90838,116.46616 182.33651,85.1987 228.22852,310.96414 h 43.36051 L 236.18222,60.94418 300,32.27664 363.73225,60.94418 328.39387,310.96414 h 43.29209 L 417.66349,85.1987 487.0061,116.46616 421.73442,310.96414 h 54.11939 l 48.7143,-124.47118 46.02885,-32.4819 z"
     id="path2" />
</svg>
